X: 1344
T: the Cashmere Shawl
R: reel
O: Kennedy
B: O'Neill's 1850 #1344
Z: Trish O'Neil
Z: Compacted via repeats and multiple endings [JC]
M: C|
L: 1/8
K: C
(BG) | A2AB AGED | EGAB {d}c2(BG) | AcBG AGEa | gedB {d}c2 :: (cd) | ecgc eccg |
| ecge d2(cd) |1 ecgc eccg | a^fge d2 :|2 e^fg2 eaa2 | gedB {d}c2 |]
